X:37
T:Off To California
R: hornpipe
M: 4/4
L: 1/8
K: Gmaj
|:(3DEF|"G" G>FG>B"C" A>GE>D|"G" G>Bd>g "C" e2 (3def|"G" g>fg>d"Em" e>dB>G|"Am" A>BA>G "D" E2 (3DEF|
"G" G>FG>B"C" A>GE>D|"G" G>Bd>g"C" e2 (3def|"G" g>fg>d"Em" e>dB>G|"C" A>GE>F "G" G2:|
|:d>f|"Em" g>fe>g"D" f>ed>f|"Em" e>de>f"D" e>dB>d|"G" g>fg>d "Em"e>dB>G|"Am" A>BA>G"D" E2 (3DEF|
"G" G>FG>B"C" A>GE>D|"G" G>Bd>g"C" e2 (3def|"G" g>fg>d"Em" e>dB>G|"Am" A>G"D" E>F "G" G2:|

